;FLAVOR:Marlin
;TIME:3088
;Filament used: 2.524m
;Layer height: 0.2
;MINX:124
;MINY:124
;MINZ:0.2
;MAXX:176
;MAXY:176
;MAXZ:20
;Generated with Cura_SteamEngine main
M140 S50
M105
M190 S50
M104 S200
M105
M109 S200
M82 ;absolute extrusion mode
M201 X500.00 Y500.00 Z100.00 E5000.00 ;Setup machine max acceleration
M203 X500.00 Y500.00 Z10.00 E50.00 ;Setup machine max feedrate
M204 P500.00 R1000.00 T500.00 ;Setup Print/Retract/Travel acceleration
M205 X8.00 Y8.00 Z0.40 E5.00 ;Setup Jerk
M220 S100 ;Reset Feedrate
M221 S100 ;Reset Flowrate

G28 ;Home

G92 E0 ;Reset Extruder
G1 Z2.0 F3000 ;Move Z Axis up
G1 X10.1 Y20 Z0.28 F5000.0 ;Move to start position
G1 X10.1 Y200.0 Z0.28 F1500.0 E15 ;Draw the first line
G1 X10.4 Y200.0 Z0.28 F5000.0 ;Move to side a little
G1 X10.4 Y20 Z0.28 F1500.0 E30 ;Draw the second line
G92 E0 ;Reset Extruder
G1 Z2.0 F3000 ;Move Z Axis up

G92 E0
G92 E0
G1 F2700 E-5
;LAYER_COUNT:100
;LAYER:0
M107
G0 F6000 X128.665 Y128.734 Z0.2
G0 X124.02 Y139.601
;TYPE:SKIRT
G1 F2700 E0
G1 F1200 X124.054 Y138.901 E0.02331
G1 X124.079 Y138.591 E0.03365
G1 X124.157 Y137.895 E0.05695
G1 X124.212 Y137.516 E0.06969
G1 X124.336 Y136.822 E0.09313
G1 X124.396 Y136.538 E0.10279
G1 X124.577 Y135.804 E0.12793
G1 X124.66 Y135.512 E0.13803
G1 X124.886 Y134.809 E0.16259
G1 X125.029 Y134.41 E0.17669
G1 X125.285 Y133.761 E0.19989
G1 X125.443 Y133.395 E0.21315
G1 X125.851 Y132.551 E0.24433
G1 X126.085 Y132.136 E0.26018
G1 X126.41 Y131.589 E0.28134
G1 X126.954 Y130.762 E0.31426
G1 X127.197 Y130.426 E0.32805
G1 X127.897 Y129.554 E0.36524
G1 X128.126 Y129.297 E0.37669
G1 X128.665 Y128.734 E0.40262
G1 X129.044 Y128.365 E0.42021
G1 X129.65 Y127.817 E0.44739
G1 X129.91 Y127.599 E0.45867
G1 X130.807 Y126.922 E0.49605
G1 X131.229 Y126.636 E0.513
G1 X131.89 Y126.216 E0.53905
G1 X132.809 Y125.722 E0.57375
G1 X133.167 Y125.549 E0.58698
G1 X133.847 Y125.248 E0.61171
G1 X134.18 Y125.114 E0.62365
G1 X134.896 Y124.855 E0.64897
G1 X135.217 Y124.751 E0.6602
G1 X135.92 Y124.548 E0.68453
G1 X136.305 Y124.451 E0.69774
G1 X137.043 Y124.292 E0.72285
G1 X137.293 Y124.247 E0.7313
G1 X137.953 Y124.149 E0.75349
G1 X138.292 Y124.109 E0.76484
G1 X138.988 Y124.049 E0.78808
G1 X139.715 Y124.017 E0.81228
G1 X140.688 Y124.001 E0.84465
G1 X159.139 Y124 E1.45833
G1 X160.399 Y124.02 E1.50024
G1 X161.099 Y124.054 E1.52355
G1 X161.409 Y124.079 E1.5339
G1 X162.105 Y124.157 E1.55719
G1 X162.484 Y124.212 E1.56993
G1 X163.178 Y124.336 E1.59338
G1 X163.462 Y124.396 E1.60303
G1 X164.196 Y124.577 E1.62818
G1 X164.488 Y124.66 E1.63827
G1 X165.191 Y124.886 E1.66283
G1 X165.59 Y125.029 E1.67693
G1 X166.246 Y125.288 E1.70039
G1 X166.609 Y125.445 E1.71354
G1 X167.856 Y126.081 E1.7601
G1 X168.407 Y126.408 E1.78141
G1 X169.239 Y126.955 E1.81453
G1 X169.575 Y127.198 E1.82832
G1 X170.445 Y127.897 E1.86544
G1 X170.701 Y128.125 E1.87684
G1 X171.266 Y128.665 E1.90284
G1 X171.635 Y129.044 E1.92043
G1 X172.183 Y129.65 E1.9476
G1 X172.401 Y129.91 E1.95889
G1 X173.078 Y130.807 E1.99627
G1 X173.364 Y131.229 E2.01322
G1 X173.784 Y131.889 E2.03924
G1 X174.274 Y132.801 E2.07368
G1 X174.443 Y133.15 E2.08657
G1 X174.74 Y133.817 E2.11086
G1 X174.878 Y134.158 E2.12309
G1 X175.145 Y134.895 E2.14917
G1 X175.249 Y135.216 E2.16039
G1 X175.453 Y135.925 E2.18493
G1 X175.55 Y136.311 E2.19816
G1 X175.728 Y137.127 E2.22594
G1 X175.85 Y137.945 E2.25345
G1 X175.891 Y138.293 E2.2651
G1 X175.951 Y138.989 E2.28834
G1 X175.983 Y139.715 E2.31251
G1 X175.999 Y140.687 E2.34484
G1 X176 Y159.139 E2.95856
G1 X175.98 Y160.399 E3.00047
G1 X175.946 Y161.099 E3.02378
G1 X175.921 Y161.409 E3.03413
G1 X175.843 Y162.105 E3.05742
G1 X175.788 Y162.484 E3.07016
G1 X175.664 Y163.178 E3.09361
G1 X175.604 Y163.462 E3.10326
G1 X175.423 Y164.195 E3.12837
G1 X175.342 Y164.48 E3.13823
G1 X175.12 Y165.173 E3.16243
G1 X174.975 Y165.579 E3.17677
G1 X174.715 Y166.239 E3.20036
G1 X174.557 Y166.605 E3.21362
G1 X174.149 Y167.449 E3.2448
G1 X173.915 Y167.864 E3.26065
G1 X173.59 Y168.411 E3.28181
G1 X173.043 Y169.243 E3.31493
G1 X172.799 Y169.58 E3.32876
G1 X172.103 Y170.445 E3.36569
G1 X171.875 Y170.701 E3.37709
G1 X171.335 Y171.266 E3.40309
G1 X170.956 Y171.635 E3.42068
G1 X170.239 Y172.274 E3.45262
G1 X169.901 Y172.55 E3.46714
G1 X169.021 Y173.199 E3.50351
G1 X168.677 Y173.427 E3.51723
G1 X168.029 Y173.828 E3.54258
G1 X167.191 Y174.278 E3.57421
G1 X166.833 Y174.451 E3.58744
G1 X166.153 Y174.752 E3.61217
G1 X165.82 Y174.886 E3.62411
G1 X165.104 Y175.145 E3.64944
G1 X164.783 Y175.249 E3.66066
G1 X164.08 Y175.452 E3.685
G1 X163.695 Y175.549 E3.6982
G1 X162.957 Y175.708 E3.72331
G1 X162.707 Y175.753 E3.73176
G1 X162.047 Y175.851 E3.75395
G1 X161.708 Y175.891 E3.7653
G1 X161.012 Y175.951 E3.78854
G1 X160.285 Y175.983 E3.81274
G1 X159.312 Y175.999 E3.84511
G1 X140.861 Y176 E4.45879
G1 X139.601 Y175.98 E4.50071
G1 X138.901 Y175.946 E4.52402
G1 X138.591 Y175.921 E4.53436
G1 X137.895 Y175.843 E4.55765
G1 X137.516 Y175.788 E4.57039
G1 X136.822 Y175.664 E4.59384
G1 X136.538 Y175.604 E4.60349
G1 X135.804 Y175.423 E4.62864
G1 X135.512 Y175.34 E4.63873
G1 X134.809 Y175.114 E4.66329
G1 X134.41 Y174.971 E4.67739
G1 X133.764 Y174.717 E4.70048
G1 X133.4 Y174.56 E4.71366
G1 X132.556 Y174.152 E4.74484
G1 X132.13 Y173.911 E4.76112
G1 X131.579 Y173.583 E4.78245
G1 X130.765 Y173.048 E4.81485
G1 X130.43 Y172.806 E4.82859
G1 X129.553 Y172.102 E4.866
G1 X129.296 Y171.873 E4.87745
G1 X128.733 Y171.334 E4.90337
G1 X128.364 Y170.955 E4.92096
G1 X127.816 Y170.349 E4.94814
G1 X127.598 Y170.089 E4.95942
G1 X126.918 Y169.187 E4.99699
G1 X126.633 Y168.766 E5.0139
G1 X126.206 Y168.093 E5.04041
G1 X125.727 Y167.202 E5.07406
G1 X125.553 Y166.843 E5.08733
G1 X125.245 Y166.146 E5.11267
G1 X125.112 Y165.815 E5.12454
G1 X124.855 Y165.104 E5.14968
G1 X124.751 Y164.783 E5.16091
G1 X124.548 Y164.08 E5.18524
G1 X124.451 Y163.695 E5.19845
G1 X124.292 Y162.957 E5.22356
G1 X124.247 Y162.707 E5.23201
G1 X124.149 Y162.047 E5.2542
G1 X124.109 Y161.708 E5.26555
G1 X124.049 Y161.012 E5.28879
G1 X124.017 Y160.285 E5.31299
G1 X124.001 Y159.313 E5.34532
G1 X124 Y140.861 E5.95904
G1 X124.02 Y139.601 E6.00095
G0 F6000 X124.401 Y140.684
G1 F1200 X124.419 Y139.608 E6.03675
G1 X124.452 Y138.933 E6.05922
G1 X124.477 Y138.623 E6.06957
G1 X124.553 Y137.953 E6.09199
G1 X124.608 Y137.574 E6.10473
G1 X124.727 Y136.905 E6.12733
G1 X124.787 Y136.621 E6.13699
G1 X124.962 Y135.914 E6.16121
G1 X125.045 Y135.622 E6.17131
G1 X125.263 Y134.944 E6.19499
G1 X125.406 Y134.545 E6.20909
G1 X125.652 Y133.92 E6.23143
G1 X125.81 Y133.554 E6.24469
G1 X126.429 Y132.341 E6.28999
G1 X126.754 Y131.794 E6.31115
G1 X127.278 Y130.996 E6.3429
G1 X127.521 Y130.66 E6.35669
G1 X128.196 Y129.82 E6.39253
G1 X128.425 Y129.563 E6.40398
G1 X128.945 Y129.02 E6.42899
G1 X129.324 Y128.651 E6.44658
G1 X129.907 Y128.123 E6.47274
G1 X130.167 Y127.905 E6.48403
G1 X131.031 Y127.253 E6.52003
G1 X131.453 Y126.967 E6.53698
G1 X132.176 Y126.516 E6.56533
G1 X132.983 Y126.082 E6.5958
G1 X133.341 Y125.909 E6.60903
G1 X133.996 Y125.619 E6.63285
G1 X134.329 Y125.485 E6.64479
G1 X135.019 Y125.235 E6.6692
G1 X135.34 Y125.131 E6.68042
G1 X136.017 Y124.936 E6.70386
G1 X136.402 Y124.839 E6.71706
G1 X137.114 Y124.686 E6.74128
G1 X137.364 Y124.641 E6.74973
G1 X138 Y124.546 E6.77112
G1 X138.339 Y124.506 E6.78247
G1 X139.01 Y124.448 E6.80487
G1 X139.722 Y124.417 E6.82858
G1 X140.695 Y124.401 E6.86094
G1 X159.316 Y124.401 E7.48028
G1 X160.392 Y124.419 E7.51607
G1 X161.067 Y124.452 E7.53855
G1 X161.377 Y124.477 E7.54889
G1 X162.047 Y124.553 E7.57132
G1 X162.426 Y124.608 E7.58406
G1 X163.095 Y124.727 E7.60666
G1 X163.379 Y124.787 E7.61631
G1 X164.086 Y124.962 E7.64054
G1 X164.378 Y125.045 E7.65064
G1 X165.056 Y125.263 E7.67432
G1 X165.455 Y125.406 E7.68842
G1 X166.087 Y125.655 E7.71101
G1 X166.45 Y125.812 E7.72417
G1 X167.652 Y126.425 E7.76904
G1 X168.203 Y126.752 E7.79036
G1 X169.005 Y127.279 E7.82227
G1 X169.341 Y127.522 E7.83607
G1 X170.179 Y128.195 E7.87181
G1 X170.435 Y128.423 E7.88322
G1 X170.98 Y128.945 E7.90832
G1 X171.349 Y129.324 E7.92591
G1 X171.877 Y129.907 E7.95207
G1 X172.095 Y130.167 E7.96335
G1 X172.747 Y131.031 E7.99936
G1 X173.033 Y131.453 E8.01631
G1 X173.484 Y132.176 E8.04465
G1 X173.914 Y132.975 E8.07483
G1 X174.083 Y133.324 E8.08773
G1 X174.369 Y133.968 E8.11117
G1 X174.507 Y134.309 E8.1234
G1 X174.765 Y135.018 E8.1485
G1 X174.869 Y135.339 E8.15972
G1 X175.065 Y136.023 E8.18338
G1 X175.162 Y136.409 E8.19662
G1 X175.334 Y137.199 E8.22351
G1 X175.453 Y137.992 E8.25018
G1 X175.494 Y138.34 E8.26184
G1 X175.552 Y139.011 E8.28424
G1 X175.583 Y139.722 E8.30791
G1 X175.599 Y140.694 E8.34024
G1 X175.599 Y159.316 E8.95961
G1 X175.581 Y160.392 E8.99541
G1 X175.548 Y161.067 E9.01788
G1 X175.523 Y161.377 E9.02823
G1 X175.447 Y162.047 E9.05065
G1 X175.392 Y162.426 E9.06339
G1 X175.273 Y163.095 E9.08599
G1 X175.213 Y163.379 E9.09565
G1 X175.038 Y164.086 E9.11987
G1 X174.957 Y164.371 E9.12973
G1 X174.743 Y165.038 E9.15302
G1 X174.598 Y165.444 E9.16736
G1 X174.348 Y166.08 E9.19009
G1 X174.19 Y166.446 E9.20335
G1 X173.571 Y167.659 E9.24864
G1 X173.246 Y168.206 E9.26981
G1 X172.719 Y169.008 E9.30173
G1 X172.475 Y169.345 E9.31556
G1 X171.805 Y170.179 E9.35114
G1 X171.577 Y170.435 E9.36255
G1 X171.055 Y170.98 E9.38765
G1 X170.676 Y171.349 E9.40524
G1 X169.986 Y171.964 E9.43598
G1 X169.648 Y172.24 E9.4505
G1 X168.8 Y172.866 E9.48555
G1 X168.456 Y173.094 E9.49928
G1 X167.824 Y173.484 E9.52398
G1 X167.017 Y173.918 E9.55446
G1 X166.659 Y174.091 E9.56768
G1 X166.004 Y174.381 E9.59151
G1 X165.671 Y174.515 E9.60345
G1 X164.981 Y174.765 E9.62785
G1 X164.66 Y174.869 E9.63908
G1 X163.983 Y175.064 E9.66251
G1 X163.598 Y175.161 E9.67572
G1 X162.886 Y175.314 E9.69994
G1 X162.636 Y175.359 E9.70839
G1 X162 Y175.454 E9.72977
G1 X161.661 Y175.494 E9.74113
G1 X160.99 Y175.552 E9.76353
G1 X160.278 Y175.583 E9.78723
G1 X159.305 Y175.599 E9.8196
G1 X140.684 Y175.599 E10.43894
G1 X139.608 Y175.581 E10.47473
G1 X138.933 Y175.548 E10.49721
G1 X138.623 Y175.523 E10.50755
G1 X137.953 Y175.447 E10.52998
G1 X137.574 Y175.392 E10.54271
G1 X136.905 Y175.273 E10.56531
G1 X136.621 Y175.213 E10.57497
G1 X135.914 Y175.038 E10.59919
G1 X135.622 Y174.955 E10.60929
G1 X134.944 Y174.737 E10.63298
G1 X134.545 Y174.594 E10.64708
G1 X133.923 Y174.349 E10.66931
G1 X133.559 Y174.192 E10.68249
G1 X132.335 Y173.567 E10.72821
G1 X131.784 Y173.239 E10.74953
G1 X130.999 Y172.724 E10.78076
G1 X130.664 Y172.482 E10.7945
G1 X129.819 Y171.803 E10.83056
G1 X129.562 Y171.574 E10.84201
G1 X129.019 Y171.054 E10.86701
G1 X128.65 Y170.675 E10.88461
G1 X128.122 Y170.092 E10.91077
G1 X127.904 Y169.832 E10.92205
G1 X127.249 Y168.963 E10.95825
G1 X126.964 Y168.542 E10.97516
G1 X126.55 Y167.888 E11.0009
G1 X126.087 Y167.027 E11.03342
G1 X125.913 Y166.668 E11.04668
G1 X125.616 Y165.997 E11.07109
G1 X125.483 Y165.666 E11.08295
G1 X125.235 Y164.981 E11.10719
G1 X125.131 Y164.66 E11.11841
G1 X124.936 Y163.983 E11.14184
G1 X124.839 Y163.598 E11.15505
G1 X124.686 Y162.886 E11.17927
G1 X124.641 Y162.636 E11.18772
G1 X124.546 Y162 E11.2091
G1 X124.506 Y161.661 E11.22046
G1 X124.448 Y160.99 E11.24286
G1 X124.417 Y160.278 E11.26656
G1 X124.401 Y159.306 E11.2989
G1 X124.401 Y140.684 E11.91827
G0 F6000 X124.801 Y140.69
G1 F1200 X124.819 Y139.614 E11.95406
G1 X124.851 Y138.965 E11.97567
G1 X124.876 Y138.655 E11.98602
G1 X124.949 Y138.01 E12.0076
G1 X125.004 Y137.631 E12.02034
G1 X125.118 Y136.988 E12.04206
G1 X125.178 Y136.704 E12.05172
G1 X125.347 Y136.023 E12.07505
G1 X125.43 Y135.731 E12.08515
G1 X125.639 Y135.079 E12.10792
G1 X125.782 Y134.68 E12.12202
G1 X126.019 Y134.078 E12.14354
G1 X126.177 Y133.712 E12.1568
G1 X126.773 Y132.545 E12.20038
G1 X127.098 Y131.998 E12.22154
G1 X127.602 Y131.231 E12.25207
G1 X127.845 Y130.895 E12.26586
G1 X128.495 Y130.086 E12.30038
G1 X128.724 Y129.829 E12.31183
G1 X129.224 Y129.307 E12.33587
G1 X129.603 Y128.938 E12.35346
G1 X130.164 Y128.43 E12.37863
G1 X130.424 Y128.212 E12.38992
G1 X131.256 Y127.584 E12.42459
G1 X131.678 Y127.298 E12.44154
G1 X132.38 Y126.86 E12.46906
G1 X133.157 Y126.442 E12.49841
G1 X133.515 Y126.269 E12.51163
G1 X134.145 Y125.99 E12.53455
G1 X134.478 Y125.856 E12.54649
G1 X135.142 Y125.616 E12.56997
G1 X135.463 Y125.512 E12.5812
G1 X136.115 Y125.324 E12.60377
G1 X136.5 Y125.227 E12.61697
G1 X137.185 Y125.079 E12.64028
G1 X137.435 Y125.034 E12.64873
G1 X138.047 Y124.943 E12.66931
G1 X138.386 Y124.903 E12.68066
G1 X139.031 Y124.848 E12.70219
G1 X139.728 Y124.817 E12.7254
G1 X140.701 Y124.801 E12.75776
G1 X159.31 Y124.801 E13.3767
G1 X160.386 Y124.819 E13.41249
G1 X161.035 Y124.851 E13.43411
G1 X161.345 Y124.876 E13.44445
G1 X161.99 Y124.949 E13.46604
G1 X162.369 Y125.004 E13.47878
G1 X163.012 Y125.118 E13.5005
G1 X163.296 Y125.178 E13.51015
G1 X163.977 Y125.347 E13.53349
G1 X164.269 Y125.43 E13.54359
G1 X164.921 Y125.639 E13.56636
G1 X165.32 Y125.782 E13.58046
G1 X165.928 Y126.022 E13.6022
G1 X166.291 Y126.179 E13.61535
G1 X167.448 Y126.769 E13.65855
G1 X167.999 Y127.096 E13.67986
G1 X168.77 Y127.603 E13.71055
G1 X169.106 Y127.846 E13.72434
G1 X169.913 Y128.494 E13.75876
G1 X170.169 Y128.722 E13.77017
G1 X170.693 Y129.224 E13.7943
G1 X171.062 Y129.603 E13.81189
G1 X171.57 Y130.164 E13.83707
G1 X171.788 Y130.424 E13.84835
G1 X172.416 Y131.256 E13.88302
G1 X172.702 Y131.678 E13.89998
G1 X173.14 Y132.38 E13.9275
G1 X173.554 Y133.15 E13.95658
G1 X173.723 Y133.499 E13.96947
G1 X173.998 Y134.118 E13.992
G1 X174.136 Y134.459 E14.00424
G1 X174.384 Y135.141 E14.02837
G1 X174.488 Y135.462 E14.0396
G1 X174.677 Y136.12 E14.06237
G1 X174.774 Y136.506 E14.0756
G1 X174.941 Y137.27 E14.10161
G1 X175.056 Y138.039 E14.12748
G1 X175.097 Y138.387 E14.13913
G1 X175.152 Y139.032 E14.16066
G1 X175.183 Y139.728 E14.18383
G1 X175.199 Y140.7 E14.21617
G1 X175.199 Y159.31 E14.83514
G1 X175.181 Y160.386 E14.87093
G1 X175.149 Y161.035 E14.89254
G1 X175.124 Y161.345 E14.90289
G1 X175.051 Y161.99 E14.92448
G1 X174.996 Y162.369 E14.93721
G1 X174.882 Y163.012 E14.95893
G1 X174.822 Y163.296 E14.96859
G1 X174.653 Y163.977 E14.99192
G1 X174.572 Y164.262 E15.00178
G1 X174.367 Y164.904 E15.02419
G1 X174.222 Y165.31 E15.03853
G1 X173.981 Y165.922 E15.06041
G1 X173.823 Y166.288 E15.07367
G1 X173.227 Y167.455 E15.11725
G1 X172.902 Y168.002 E15.13841
G1 X172.395 Y168.774 E15.16913
G1 X172.151 Y169.111 E15.18297
G1 X171.506 Y169.913 E15.2172
G1 X171.278 Y170.169 E15.2286
G1 X170.776 Y170.693 E15.25274
G1 X170.397 Y171.062 E15.27033
G1 X169.733 Y171.655 E15.29994
G1 X169.395 Y171.931 E15.31446
G1 X168.579 Y172.532 E15.34816
G1 X168.235 Y172.76 E15.36189
G1 X167.62 Y173.14 E15.38594
G1 X166.843 Y173.558 E15.41528
G1 X166.485 Y173.731 E15.42851
G1 X165.855 Y174.01 E15.45142
G1 X165.522 Y174.144 E15.46336
G1 X164.858 Y174.384 E15.48684
G1 X164.537 Y174.488 E15.49807
G1 X163.885 Y174.676 E15.52064
G1 X163.5 Y174.773 E15.53384
G1 X162.815 Y174.921 E15.55715
G1 X162.565 Y174.966 E15.5656
G1 X161.953 Y175.057 E15.58618
G1 X161.614 Y175.097 E15.59753
G1 X160.969 Y175.152 E15.61906
G1 X160.272 Y175.183 E15.64227
G1 X159.299 Y175.199 E15.67463
G1 X140.69 Y175.199 E16.29357
G1 X139.614 Y175.181 E16.32936
G1 X138.965 Y175.149 E16.35098
G1 X138.655 Y175.124 E16.36132
G1 X138.01 Y175.051 E16.38291
G1 X137.631 Y174.996 E16.39565
G1 X136.988 Y174.882 E16.41737
G1 X136.704 Y174.822 E16.42702
G1 X136.023 Y174.653 E16.45036
G1 X135.731 Y174.57 E16.46046
G1 X135.079 Y174.361 E16.48323
G1 X134.68 Y174.218 E16.49733
G1 X134.081 Y173.982 E16.51874
G1 X133.717 Y173.825 E16.53192
G1 X132.54 Y173.224 E16.57588
G1 X131.989 Y172.896 E16.59721
G1 X131.233 Y172.399 E16.6273
G1 X130.898 Y172.157 E16.64104
